X: 1
T: the Rival Hornpipe
O: Trad
R: hornpipe
Z: 2007 John Chambers <jc:trillian.mit.edu>
S: The Ralph Page Book of Contras, 1969, EFDSS
M: C|
L: 1/8
K: G
D2 \
| "G"GDGB dGBd | gfed cBAG | "C"ABcd "Am"ecAG | "D7"GFAF D2EF | "G"GDGB dGBd |
| gfed cBAG | "C"ABcd "D7"ecAF | "G"G2G2 G2 :: EF | "D"ADFD ADFA | "D7"cDBD A2GA |
| "G"BDGD BDGD | "G"dDcD B2D2 | "G"GDGB dGBd | gfed cBAG | "C"ABcd "D7"ecAF | "G"G2G2 G2 :|
